X:21
T:Through the Wood Ladway. JClw.21
T: Through the Wood Laddie,aka. JClw.21
M:3/4
L:1/8
Q:1/4=120
S:J.Clews MS,Stoke-upon-Tern,Shrops.1832
A:N. Shropshire
Z:Neil Brookes 2006
K:F
FC|D2F>G A/G/F/G/|A4fc|d2fd cA|G4FG|A3B AG|A2F2FG|AGABAG|A2F2FC|!
D2F>G A/G/F/G/|A4fg|agfdcA|G4Bc|d2 fd cA|cd cBAG|A2D2E2|F4::!
fc|d2fg a/g/f/g/|a4fg|a2ba gf|g4fg|a3b ag|a2f2fg|ag abag|a2f2fc|!
d2fg a/g/f/g/|a4fg|ag fd cB/A/|G4Bc|d2fd cA|cdcBAG|A2D2E2|F4:|

